X:1
T:O Lord my God
T:William Byrd (c.1540-1623)
T:O Lord my God
T:© Choral Public Domain Library 2010
T:© Choral Public Domain Library 2010
T:© Choral Public Domain Library 2010
T:© Choral Public Domain Library 2010
T:© Choral Public Domain Library 2010
C:William Byrd (c.1540-1623)
Z:© Choral Public Domain Library 2010
%%score [ 1 2 3 4 ]
L:1/8
M:4/4
K:Bb
V:1 treble nm="Alto" snm="A."
V:2 treble-8 transpose=-12 nm="Tenor" snm="T."
V:3 treble-8 transpose=-12 nm="Tenor" snm="T."
V:4 bass nm="Bass" snm="B."
V:1
 [B,d]2 |[M:4/2] z16 | z16 | z16 | z16 | z16 | z16 | z16 | z16 | z16 | D8 G8- | G4 B4 A8 | %12
w: ||||||||||O Lord|_ my God,|
 z8 z4 D4 | E4 C4 G6 A2 | B4 G4 F4 E4 | D8 z8 | z16 | z8 z4 D4 | E4 F4 G4 A4 | B8 A4 c4 | %20
w: let|flesh and blood thy|ser- vant not sub-|due,||nor|let the world de-|ceive me, with|
 B4 A6 G2 B4 | A4 G6 ^F=E F4 | G16 | z8 z4 G4 | G4 B4 A8 | z8 z4 G4 | B4 G4 d8 | z4 A4 B8 | %28
w: his glo- ry most|un- true, un- * *|true,|let|not O Lord,|O|migh- ty God,|let not|
 G4 c6 B2 B4- | B4 A4 B8 | z4 F4 F4 D4 | B,8 z4 B4 | B4 F4 B,4 C4 | D2 =E2 F8 E4 | F4 F4 A4 G4 | %35
w: thy mor- * *|* tal foe,|let not the|fiend, let|not the fiend with|all _ _ his|craft, with all his|
 F16 | z4 G4 B8- | B8 B8 | G12 G4 | G8 z4 G4 | G4 G4 G8 | z4 A4 A4 A4 | A8 z4 A4 | B6 B2 F8 | %44
w: craft,|thy ser-|* vant|o- ver-|throw: But|to re- sist,|but to re-|sist, give|for- ti- tude,|
 z4 A4 c6 c2 | G4 B8 A4 | G8 ^F8 | z8 z4 A4 | d6 c2 B4 A4 | B4 G4 ^F8 | z16 | z4 A4 B8 | %52
w: give pa- ti-|ence to en-|* dure,|give|con- stan- cy, that|al- ways thine||I may|
 G4 A6 G2 G4- | G4 ^F4 G8 | z16 | z4 A4 B8 | G4 c6 B2 A2 G2 | A4 ^F4 G6 =F2 | E2 D2 C4 F8 | %59
w: per- se- * *|* ver sure,||I may|per- se- * * *|* ver sure, per-|se- * ver sure,|
 D8 E8- | E4 E4 D8 | z4 D4 F8 | D4 G6 F2 E2 D2 | E4 E4 D8 | D4 D8 D4 | !fermata!D16 |] %66
w: per- se-|* ver sure,|I may|per- se- * * *|* ver sure,|per- se- ver|sure.|
V:2
 [Dg]2 |[M:4/2] G8 d8- | d4 e4 d8 | z4 A4 B4 G4 | d6 =e2 f8 | d4 c8 B4 | A6 B2 A4 G2 G2- | %7
w: |O Lord|_ my God,|let flesh and|blood thy ser-|vant not sub-|due, thy ser- vant not|
 G2 ^F=E F4 G4 e4 | d8 G4 d4- | d2 cB c4 d4 A4 | B12 e4 | d8 z4 A4 | B4 G4 A6 B2 | c8 B4 e4- | %14
w: _ sub- * * due, thy|ser- vant not|_ sub- * * due, O|Lord my|God, let|flesh and blood thy|ser- vant not|
 e2 d2 d8 c4 | =B8 z4 A4 | B4 c4 d4 e4 | f8 d8 | G4 B6 G2 d4- | d4 c2 B2 c8 | z4 f4 e4 d4- | %21
w: _ sub- due, sub-|due, nor|let the world de-|ceive me,|the world de- ceive|_ _ _ me,|with his glo-|
 d2 A2 B4 A8 | G4 d4 d4 e4 | d8 z4 d4 | d4 g4 ^f4 z2 =f2 | g4 e4 d8 | G4 B4 G4 g4- | g4 ^f4 g8 | %28
w: * ry most un-|true, let not O|Lord, let|not O Lord, O|migh- ty God,|let not thy mor-|* tal foe,|
 z4 c4 g6 f2 | e3 d c2 e2 d8- | d8 z8 | z4 f4 f4 d4 | B6 B2 G4 A4 | B4 d8 c2 B2 | A4 A4 c6 c2 | %35
w: thy mor- *|* * * tal foe,|_|let not the|fiend with all his|craft, with all his|craft, with all his|
 c8 z4 d4 | e12 d4 | G4 g8 f4 | e6 e2 d8 | z4 =e4 e4 e4 | =e8 z4 e4 | f6 f2 c8 | z4 f4 f4 f4 | %43
w: craft, thy|ser- vant,|thy ser- vant|o- ver- throw:|But to re-|sist give|for- ti- tude,|but to re-|
 f4 z4 z4 d4 | f6 f2 c4 e4- | e4 e4 d8 | G4 G4 A8 | z8 z4 d4- | d4 g8 f4 | e4 d4 d4 A4 | %50
w: sist, give|pa- ti- ence to|_ en- dure,|to en- dure,|give|_ con- stan-|cy that al- ways|
 d6 c2 d4 B4 | A8 z4 d4 | e4 c4 d6 d2 | d8 B4 c4 | A4 F8 B4 | A8 z4 d4 | e8 c4 f4- | %57
w: thine, that al- ways|thine, I|may per- se- ver|sure, I may|per- se- ver|sure, I|may per- se-|
 f2 e2 d2 c2 B2 A2 G4 | c6 B2 A2 G2 F4 | G16 | z8 z4 A4 | B8 A4 d4- | d2 c2 B2 A2 B4 G4 | %63
w: * * * * * * ver|sure, per- se- * ver|sure,|I|may per- se-|* ver _ _ sure, per-|
 c6 B2 A2 G2 F2 E2 | D4 B4 A6 c2 | !fermata!=B16 |] %66
w: se- ver _ _ _ _|sure, per- se- ver|sure.|
V:3
 [B,f]2 |[M:4/2] z16 | z16 | D8 G8- | G4 B4 A4 z2 A2 | B4 G4 d6 =e2 | f4 d4 c4 B4 | A8 z4 G4 | %8
w: |||O Lord|_ my God, let|flesh and blood thy|ser- vant not sub-|due, let|
 B4 G4 d6 B2 | A4 G2 G4 ^F=E F4 | G8 z4 C4 | G6 G2 ^F4 =F4- | F4 G6 ^F=E F4 | G8 G4 G4- | %14
w: flesh and blood thy|ser- vant not sub- * *|due, O|Lord my God, let|_ flesh and _ _|blood thy ser-|
 G2 A2 B8 G4 | G4 z2 D2 E4 F4 | G4 A4 B8 | A4 z2 A2 B8 | c4 d4 e4 f4- | f4 =e4 f4 c4 | %20
w: * vant not sub-|due, nor let the|world de- ceive|me, nor let|the world de- ceive|_ me with his|
 d6 A2 c4 F4 | f4 d6 c2 A4 | =B16 | z4 G4 G4 B4- | B2 A2 B2 c2 d8 | z4 G4 B4 G4 | d12 B4 | %27
w: glo- ry most un-|true, most un- *|true,|let not O|_ _ _ _ Lord,|O migh- ty|God, let|
 A8 z4 d4 | e12 d4 | c4 c4 B4 F4 | F4 D4 B,4 B,4 | B,6 C2 D2 E2 F4 | G4 d8 f4- | f4 B4 B4 G4 | %34
w: not, let|not thy|mor- tal foe, let|not the fiend with|all his _ _ _|craft, his craft,|_ let not the|
 F8 z4 G4 | A2 =B2 c8 B4 | c8 z4 B4 | e12 d4- | d4 c8 =B4 | c8 z4 c4 | c4 c4 c8 | z4 c4 f6 f2 | %42
w: fiend with|all _ _ his|craft, thy|ser- vant|_ o- ver-|throw: But|to re- sist,|give for- ti-|
 c4 d4 c4 c4 | d4 e4 d6 d2 | c8 A4 c4- | c2 c2 B8 d4- | d4 c4 d4 A4 | d6 c2 B4 A4 | B4 G4 d4 D4 | %49
w: tude, but to re-|sist give for- ti-|tude, give pa-|* ti- ence to|_ en- dure, give|con- stan- cy that|al- ways thine, that|
 G4 B4 A8 | D4 A6 G2 G4- | G4 ^F4 G8 | z4 A4 B4 G4 | A6 A2 G8 | F4 A6 G2 G4- | G4 ^F4 G4 G4 | %56
w: al- ways thine,|I may per- se-|* ver sure,|I may per-|se- ver sure,|I may per- se-|* ver sure, per-|
 c6 B2 A2 G2 F2 E2 | D4 A4 G8 | z8 z4 A4 | B8 G4 c4- | c2 B2 A2 G2 ^F2 =E2 F4 | G8 z4 A4 | %62
w: se- * * * * *|* ver sure,|I|may per- se-|* * * * * * ver|sure, I|
 B8 G4 c4- | c2 B2 A2 G2 ^F4 A2 A2- | A2 G2 G8 ^F4 | !fermata!G16 |] %66
w: may per- se-|* ver _ _ sure, I may|_ per- se- ver|sure.|
V:4
 [G,,B,]2 |[M:4/2] z16 | z16 | z16 | G,,8 D,8- | D,4 E,4 D,8- | D,8 z8 | z4 D,4 E,4 C,4 | %8
w: ||||O Lord|_ my God,|_|let flesh and|
 G,6 A,2 B,4 G,4 | F,4 E,4 D,4 D,4 | G,,8 z8 | G,,8 D,8- | D,4 E,4 D,4 D,4 | C,6 D,2 E,4 C,4 | %14
w: blood thy ser- vant|not sub- due, sub-|due,|O Lord|_ my God, let|flesh and blood thy|
 G,6 G,,2 B,,4 C,4 | G,,8 z4 D,4 | G,,4 C,4 B,,4 G,,4 | D,8 B,,4 z2 G,,2 | C,4 B,,4 E,4 D,4 | %19
w: ser- vant not sub-|due, nor|let the world de-|ceive me, nor|let the world de-|
 G,8 F,8 | D,4 D,4 C,4 B,,4 | D,4 G,4 D,8 | G,,8 z4 G,4 | G,4 B,6 A,2 G,2 F,2 | G,8 D,4 z2 D,2 | %25
w: ceive me|with his glo- ry|most un- *|true, let|not O _ _ _|_ Lord, O|
 E,4 C,4 G,8 | z4 G,,4 B,,4 G,,4 | D,8 z4 G,,4 | C,12 D,4 | E,4 F,4 B,,8- | B,,8 z4 F,4 | %31
w: migh- ty God,|O might- y|God, let|not thy|mor- tal foe,|_ let|
 F,4 D,4 B,,8 | z4 B,4 B,4 F,4 | B,,12 C,4 | D,2 =E,2 F,8 E,4 | F,4 F,4 D,6 D,2 | C,4 C,4 G,6 F,2 | %37
w: not the fiend,|let not the|fiend with|all _ _ his|craft, with all his|craft, thy ser- vant|
 E,4 E,4 B,,8 | C,4 C,4 G,,8 | z4 C,4 C,4 C,4 | C,8 z8 | F,8 F,4 F,4 | F,4 D,4 F,6 F,2 | %43
w: o- ver- throw,|o- ver- throw:|But to re-|sist,|but to re-|sist give for- ti-|
 B,,4 G,4 B,6 B,2 | F,8 z8 | C,4 G,6 G,2 D,4 | E,4 E,4 D,4 D,4 | B,6 A,2 G,4 ^F,4 | G,4 E,4 D,8 | %49
w: tude, give for- ti-|tude,|give pa- ti- ence|to en- dure, give|con- stan- cy that|al- ways thine,|
 z4 G,,4 D,6 C,2 | B,,4 A,,4 B,,4 G,,4 | D,8 z8 | z16 | D,8 E,4 C,4 | D,12 G,,4 | D,8 z8 | z16 | %57
w: give con- stan-|cy that al- ways|thine,||I may per-|se- ver|sure,||
 z4 D,4 E,8 | C,4 F,6 E,2 D,2 C,2 | B,,2 A,,2 G,,4 C,8 | C,8 D,6 D,2 | G,,8 D,8 | %62
w: I may|per- se- * * *|* * ver sure,|per- se- ver|sure, I|
 G,6 F,2 E,2 D,2 C,4- | C,4 C,4 D,4 D,4 | B,,6 C,2 D,4 D,4 | !fermata!G,,16 |] %66
w: may per- se- * *|* ver sure, I|may per- se- ver|sure.|

